src/assets/images/prototype/produits-armoire/6-multi.svg

<svg width="237" height="696" viewBox="0 0 237 696" fill="none" xmlns="http://www.w3.org/2000/svg">
<path d="M7 509.58C7 443.687 47.4855 268.063 67.7283 188.488H144.511C152.887 234.093 170.757 330.746 175.224 352.524C180.808 379.747 210.126 394.406 222.69 425.817C235.254 457.228 230.368 633.829 222.69 656.166C215.012 678.502 157.076 688.973 124.268 688.973C91.4611 688.973 45.3914 677.804 30.7329 674.314C16.0743 670.824 7 591.947 7 509.58Z" fill="white" stroke="#81EC40" stroke-width="13"/>
<path d="M66.8614 95.0681V188.487H144.237C142.488 153.164 140.04 79.5913 144.237 67.8791C148.433 56.1669 179.208 47.1969 194.071 44.1759V7.92384C189.481 7.22669 164.826 6.25067 102.926 7.92384C41.026 9.59701 22.491 66.7172 20.9609 95.0681H66.8614Z" fill="white" stroke="#81EC40" stroke-width="13"/>
<path d="M222.688 8.875H193.371V43.0783H222.688V8.875Z" fill="white" stroke="#81EC40" stroke-width="13"/>
<path d="M175.924 83.084C175.924 74.7077 183.602 50.7422 187.79 45.3906L170.34 49.5788L154.285 57.2571C155.449 76.1038 165.174 105.281 172.434 115.891C186.394 136.295 204.543 154.981 225.484 149.396C208.731 145.873 175.924 99.8366 175.924 83.084Z" fill="white" stroke="#81EC40" stroke-width="13"/>
</svg>

<svg width="237" height="696" fill="none" xmlns="http://www.w3.org/2000/svg"><path d="M7 509.58c0-65.893 40.486-241.517 60.728-321.092h76.783c8.376 45.605 26.246 142.258 30.713 164.036 5.584 27.223 34.902 41.882 47.466 73.293 12.564 31.411 7.678 208.012 0 230.349-7.678 22.336-65.614 32.807-98.422 32.807-32.807 0-78.877-11.169-93.535-14.659C16.074 670.824 7 591.947 7 509.58zM66.861 95.068v93.419h77.376c-1.749-35.323-4.197-108.896 0-120.608 4.196-11.712 34.971-20.682 49.834-23.703V7.924c-4.59-.697-29.245-1.673-91.145 0-61.9 1.673-80.435 58.793-81.965 87.144h45.9z" fill="#fff" stroke="#81EC40" stroke-width="13"/><path d="M222.688 8.875h-29.317v34.203h29.317V8.875zm-46.764 74.209c0-8.376 7.678-32.342 11.866-37.693l-17.45 4.188-16.055 7.678c1.164 18.847 10.889 48.024 18.149 58.634 13.96 20.404 32.109 39.09 53.05 33.505-16.753-3.523-49.56-49.56-49.56-66.312z" fill="#fff" stroke="#81EC40" stroke-width="13"/></svg>
